X: 3426
T: DANUBE WALTZ
%R: waltz
B: James Kerr "Merry Melodies" v.3 p.48 #426
Z: 2016 John Chambers <jc:trillian.mit.edu>
M: 3/4
L: 1/4
K: C
G |\
e3- | edc | d3- | dGB |\
d3- | dcB | c3- | cGc |\
e3- | ede | g3- | gfe |\
d3- | dcB | c3- | cz :|
|: c |\
cBA | AG^F | (G2e) | czc |\
cBA | AG^F | (G2e) | cze |\
edc | cBA | fed | fed |\
cBA | (Ge)>d | c3- | cz :|

%%sep 1 1 500
%%sep 1 1 500

